X:1
T:Title
%%score ( 1 2 ) ( 3 4 )
L:1/8
Q:1/4=100
M:4/4
K:Eb
V:1 treble nm="Choir Aahs, Staff"
V:2 treble 
V:3 bass nm="Choir Aahs, Staff-1"
V:4 bass 
V:1
 [EG]2 [EB]2 [EA]2 [EG]2 | [EA]2 G2- G/ z/ F E2 | [_DE]2 c-[=Dc] [EB]2 [FA]2 | %3
w: By~F.~A.~Gore~Ouseley,~1868 * * *|||
 [FB]2 [EG]2 [E=A]2 [DB]2 | [_DB]2 [CB]2 [CG]2 [CA]2 | F2 [FG]2 [=EG]2 [FA]2 | z4 z2 F2- | %7
w: ||||
 F2 z2 z4 |] %8
w: |
V:2
 x8 | z2 E2 D2 z2 | z2 .C2 z4 | x8 | x8 | x8 | [DG]2 E4 z2 | D2 E6 |] %8
V:3
 [E,E]2 [E,D]2 [E,C]2 [E,B,]2 | [A,,C]2 [B,,B,]2 [B,,A,]2 [C,G,]2 | [G,B,]2 A,2 [G,B,]2 [F,C]2 | %3
 z2 B,2 z4 | [B,,F,]2 [C,=E,]2 [E,G,]2 F,2 | [A,,C]2 [B,,_D]2 [C,C]2 [F,C]2 | z2 C2 z4 | z8 |] %8
V:4
 x8 | x8 | x8 | [D,B,]2 E,D, [C,C]2 [B,,F,]2 | x8 | x8 | [G,=B,]2 C,2- [C,G,]2 [B,,A,]2- | %7
 [B,,A,]2 [E,G,]6 |] %8

